src/pos-icons/view-day.svg

<svg height="24" viewBox="0 0 24 24" width="24" xmlns="http://www.w3.org/2000/svg"><path d="m2 3v3h19v-3m-1 5h-17a1 1 0 0 0 -1 1v6a1 1 0 0 0 1 1h17a1 1 0 0 0 1-1v-6a1 1 0 0 0 -1-1m-18 13h19v-3h-19z"/></svg>

<?xml version="1.0" encoding="UTF-8"?><!DOCTYPE svg PUBLIC "-//W3C//DTD SVG 1.1//EN" "http://www.w3.org/Graphics/SVG/1.1/DTD/svg11.dtd"><svg xmlns="http://www.w3.org/2000/svg" xmlns:xlink="http://www.w3.org/1999/xlink" version="1.1" id="mdi-view-day" width="24" height="24" viewBox="0 0 24 24"><path d="M2,3V6H21V3M20,8H3A1,1 0 0,0 2,9V15A1,1 0 0,0 3,16H20A1,1 0 0,0 21,15V9A1,1 0 0,0 20,8M2,21H21V18H2V21Z" /></svg>
